X: 39737
T: Thadelo's
R: barndance
M: 4/4
K: Gmajor
|:(3dcA|B2 B>^A B2 G>=A|B>AG>E D4|G2 G2 (3ABA G>A|B2 G2 (3ABA d>c|
B2 B2 B>A (3FGA|B2 (3GFE D4|(3GAG F>G A2 d>c|B2 G2 G2-:|
|:G>A|B<d-d>^c d2 d2|e<g-g>f g2 g2|d3 e d>BG>A|B>A-A>A A2 G>A|
B>dd>^c (3ded (3Bcd|e>gg>f g>a (3gfe|d2 d>e d2 (3FGA|B2 G2 G2-:|

